X: 40461
T: Tom Sullivan's
R: polka
M: 2/4
K: Dmixolydian
|:F>G AB|cA AG|Ad d^c|d2 d>e|
fd ed|cA AB|c/B/A GE|1 D2 D>E:|2 D2 d>e||
fd ed|cA Ae|fd e^c|d2 d>e|
fd ed|cA AB|c/B/A GE|D2 d>e|
fd ed|cA Ae|fd ef|g2 a>g|
fd ed|cA AB|c/B/A GE|D4||

